X:2
T:Big Dark's Fancy
R:jig
C:Cindy Kallett
D:Working on Wings to Fly
K:D
M:6/8
A | d2A FED | FGA d2 A | BdB A2D | \
GFG EDE | EDE D2 D | G2B A2D | GFG E2D | D3 z3 :: \
f2d dcd | a2d dcd | f3 g3 | BAB cBA | B2d A2F | \
GFG EAD | GFG E2D | D3 z3 :|
